X: 23886
T: Lobster, The
R: reel
M: 4/4
K: Amajor
|:AF|EFAc BcAc|BcAc BcAF|EFAc BcAc|Bcec (3BcB:|
e3 ^d eA A/A/A|eAcA BAFA|e3 ^d edec|ABcA BAFA|
e3 ^d e ~a3|ea a/a/f ecAc|d2 [df]/[df/[df] [c3e3] B|ABcA (3BcB AF||

